O1001
;( EDITED)
;(T3 D=0.375 CR=0. - ZMIN=-0.1181 - FLAT END MILL)
N1 G90 G40 G80
N2 G17 G49
N3 G70
N4 G79 Z0.1

;(2D CONTOUR2)
N5 T3 M06
N6 S9680 M03
N7 G54
N8 M08
N10 G43 H03
N11 G00 X1. Y1.1875
N12 G00 Z0.5906
N13 Z0.1969
N14 G01 Z0.0394 F182.
N15 Z-0.1181
N16 G02 X1.1875 Y1. I0. J-0.1875
N17 G01 Y0.
N18 G02 X1. Y-0.1875 I-0.1875 J0.
N19 G01 X0.
N20 G02 X-0.1875 Y0. I0. J0.1875
N21 G01 Y1.
N22 G02 X0. Y1.1875 I0.1875 J0.
N23 G01 X1.
N24 G00 Z0.5906

N26 M09
N27 G79 Z0.1
N28 G49
N29 M30
%
